X:57
T:RVW2/2/57 Newport Street
C:James Punt, East Horndon, Essex, 23 April 1904
L:1/8
Q:1/4=72
M:3/4
I:linebreak $
K:G
"^(Editorial suggestion  " (B/A/) | GD GA Bc | (AB/c/) d3 d | Bd B2 (GE) | FG A2 (BA) |$ GD GA Bc | 
w: In _|New- port Street it was re-|por- * * ted a|come- ly dam- sel _|there did dwell and _|by a ser- vant young man|
A(B/c/) d3 d | Bc B2 (c>A) | GF G3 |] 
w: was cour- * ted who|lov- ï¿½d her ex- *|cee- ding well.|



